packages/foundations/assets/icons/functional/images/notification/cross_circle_28_filled.svg

<svg width="28" height="28" viewBox="0 0 28 28" fill="none" xmlns="http://www.w3.org/2000/svg">
<g clip-path="url(#clip0_2214_8060)">
<path fill-rule="evenodd" clip-rule="evenodd" d="M14 1.75C20.754 1.75 26.25 7.24614 26.25 14C26.25 20.7539 20.754 26.25 14 26.25C7.24614 26.25 1.75 20.7539 1.75 14C1.75 7.24614 7.24614 1.75 14 1.75ZM18.8672 8.3125C18.6484 8.3125 18.423 8.38784 18.245 8.56529L14 12.7969L9.70034 8.5106C9.54966 8.36045 9.35156 8.3125 9.1602 8.3125C8.69531 8.3125 8.3125 8.66801 8.3125 9.13281C8.3125 9.35156 8.38784 9.57696 8.56529 9.75502L12.7969 14L8.5106 18.2997C8.36045 18.4503 8.3125 18.6484 8.3125 18.8398C8.3125 19.3047 8.66801 19.6875 9.13281 19.6875C9.35156 19.6875 9.57696 19.6122 9.75502 19.4347L14 15.2031L18.2997 19.4894C18.4503 19.6396 18.6484 19.6875 18.8399 19.6875C19.3047 19.6875 19.6875 19.332 19.6875 18.8672C19.6875 18.6484 19.6122 18.423 19.4347 18.245L15.2031 14L19.4894 9.70034C19.6396 9.54966 19.6875 9.35156 19.6875 9.1602C19.6875 8.69531 19.3321 8.3125 18.8672 8.3125Z" fill="#1A1C1F"/>
</g>
<defs>
<clipPath id="clip0_2214_8060">
<rect width="28" height="28" fill="white"/>
</clipPath>
</defs>
</svg>

<svg xmlns="http://www.w3.org/2000/svg" width="28" height="28" fill="none"><g clip-path="url(#a)"><path fill="#1A1C1F" fill-rule="evenodd" d="M14 1.75c6.754 0 12.25 5.496 12.25 12.25S20.754 26.25 14 26.25 1.75 20.754 1.75 14 7.246 1.75 14 1.75m4.867 6.563a.87.87 0 0 0-.622.252L14 12.797 9.7 8.51c-.15-.15-.348-.198-.54-.198-.465 0-.848.355-.848.82a.87.87 0 0 0 .253.622L12.797 14 8.51 18.3c-.15.15-.198.348-.198.54 0 .465.355.848.82.848a.87.87 0 0 0 .622-.253L14 15.203l4.3 4.286c.15.15.348.198.54.198.465 0 .848-.355.848-.82a.87.87 0 0 0-.253-.622L15.203 14l4.286-4.3c.15-.15.198-.348.198-.54 0-.465-.355-.848-.82-.848" clip-rule="evenodd"/></g><defs><clipPath id="a"><path fill="#fff" d="M0 0h28v28H0z"/></clipPath></defs></svg>
